fs/share_ios_20_regular.svg

<svg viewBox="0 0 20 20" fill="none" xmlns="http://www.w3.org/2000/svg" height="1em" width="1em">
  <path d="M16 9.5C16.2455 9.5 16.4496 9.67688 16.4919 9.91012L16.5 10V16C16.5 17.3255 15.4685 18.41 14.1644 18.4947L14 18.5H6C4.67452 18.5 3.58996 17.4685 3.50532 16.1644L3.5 16V10C3.5 9.72386 3.72386 9.5 4 9.5C4.24546 9.5 4.44961 9.67688 4.49194 9.91012L4.5 10V16C4.5 16.7797 5.09489 17.4204 5.85554 17.4931L6 17.5H14C14.7797 17.5 15.4204 16.9051 15.4931 16.1445L15.5 16V10C15.5 9.72386 15.7239 9.5 16 9.5ZM5.40381 6.38909L9.64645 2.14645C9.82001 1.97288 10.0894 1.9536 10.2843 2.08859L10.3536 2.14645L14.5962 6.38909C14.7915 6.58435 14.7915 6.90093 14.5962 7.09619C14.4226 7.26976 14.1532 7.28905 13.9583 7.15405L13.8891 7.09619L10.5 3.707V13C10.5 13.2455 10.3231 13.4496 10.0899 13.4919L10 13.5C9.75454 13.5 9.55039 13.3231 9.50806 13.0899L9.5 13V3.707L6.11091 7.09619C5.93735 7.26976 5.66792 7.28905 5.47305 7.15405L5.40381 7.09619C5.23024 6.92263 5.21095 6.6532 5.34595 6.45834L5.40381 6.38909L9.64645 2.14645L5.40381 6.38909Z" fill="#212121"/>
</svg>

<svg viewBox="0 0 20 20" fill="none" xmlns="http://www.w3.org/2000/svg" height="1em" width="1em">
  <path d="M16 9.5a.5.5 0 0 1 .492.41l.008.09v6a2.5 2.5 0 0 1-2.336 2.495L14 18.5H6a2.5 2.5 0 0 1-2.495-2.336L3.5 16v-6a.5.5 0 0 1 .992-.09L4.5 10v6a1.5 1.5 0 0 0 1.356 1.493L6 17.5h8a1.5 1.5 0 0 0 1.493-1.355L15.5 16v-6a.5.5 0 0 1 .5-.5ZM5.404 6.39l4.242-4.244a.5.5 0 0 1 .638-.057l.07.057 4.242 4.243a.5.5 0 0 1-.638.765l-.069-.058L10.5 3.707V13a.5.5 0 0 1-.41.492L10 13.5a.5.5 0 0 1-.492-.41L9.5 13V3.707l-3.39 3.39a.5.5 0 0 1-.637.057l-.07-.058a.5.5 0 0 1-.057-.638l.058-.069 4.242-4.243L5.404 6.39Z" fill="#212121"/>
</svg>
